X:168040
T:Atholl Highlanders
C: Traditional (Pub 1869)
B: William Ross - Ross Collection of Pipe Music
B: Scots Guard 1
H:
O:Kevin Fraser
Z:Kevin Fraser
Q:3/8=90
K:HP
M:6/8
L:1/8
R:March
U: R = ///
U: r = //
U: V = !accent!
V:M gstem=up stem=down name="Melody" sname="Melody" 
V:H gstem=up stem=down name="Harmony" sname="Harmony"
V:C gstem=up stem=down name="C-Harmony" sname="C-Harmony"
V:S gstem=up stem=down dyn=up stafflines=1 clef=perc middle=G name="Snare" sname="Snare"" sname="Snare"
V:B gstem=up stem=down clef=none dyn=up name="Bass" sname="Bass"
V:T gstem=up stem=down clef=none dyn=up name="Tenor" sname="Tenor"
V:BB gstem=up stem=down name="Brass Bass" sname="ABCD-C" transpose=-1  octave=-1 clef=bass
V:BC gstem=up stem=down name="Brass Chord" sname="ABCD-D" transpose=-1
V:BD gstem=up stem=down name="Brass Chord 2" sname="ABCD-B" transpose=-1
V:P gstem=up stem=down name="Piano" octave=-1
I:MIDI=program 110
%%MIDI gracedivider 4
%%MIDI gchord
%%MIDI beatstring 
% %alignbars 80
I:linebreak $
% %score {M H}
%%score {M}
% %MIDI program 109 #bagpipes
%%MIDI vol 100
%%pagewidth 22cm % 8"
%%pageheigth 36cm %14"
%%portrait
[V:M]|:    {g}c/<d/| {g}e3      {gef}e>c{d}A     | {gef}e>c{d}A  {g}B>cd  | {g}e3        {gef}e>c{d}A   | {g}B>cd       {gcd}c>B{G}A |$
[V:M]          xxx   | {g}e3      {gef}e>c{d}A     | {gef}e>c{d}A  {g}B>cd  | {g}c<ae      {g}f>ed        | {g}c<d{e}B    {G}A2     x1  :|$
[V:M]|:     x e    | {g}A>ce    {g}A>ce          | {g}B>df       {g}B>df  | {g}A>ce      {g}A>ce        | {g}B>cd       {gcd}c>B{G}A |$
[V:M]         xx   x | {g}A>ce    {g}A>ce          | {g}B>df       {g}B>df  | {g}c<ae      {g}f>ed        | {g}c<d{e}B    {G}A2       :|$
[V:M]|:    x  e    | a2{GdG}e   {gef}e>dc        | a2{GdG}e     {gef}e>dc | a2{GdG}e     {gef}e>dc      | {g}B>cd       {gcd}c2e     |$
[V:M]     xx    x   |[1 a2{GdG}e   {gef}e>dc        | a2{GdG}e     {gef}e>dc | {g}c<ae      {g}f>ed        | {g}c<d{e}B    {G}A2       :|$
[V:M]	 x x x |[2 a2{GdG}e   a2{GdG}e         | {g}f2{GdG}f  {gef}e2d  | {g}c<ae      {g}f>ed        | {g}c<d{e}B    {G}A2       ||$
[V:M]|:  xx   B     | {g}c<{d}A{e}c {g}c<{d}A{e}c | {gde}d>Bd    {gde}d>Bd | {g}c<{d}A{e}c {g}c<{d}A{e}c | {g}B<{d}G{e}B {g}B>cd      |$
[V:M]	   xx x | {g}c<{d}A{e}c {g}c<{d}A{e}c | {gde}d>Bd    {gde}d>Bd | {g}c<ae      {g}f>ed        | {g}c<d{e}B    {G}A2       :|$
[V:M]|:     a/<f/  | {gef}e2A  {gcd}c2{e}A        | {gef}e>c{d}A {g}B>cd   | {gef}e2A     {gcd}c2{e}A     | {g}B>cd       {g}c<af      |$
[V:M]          XXX   | {gef}e2A  {gcd}c2{e}A        | {gef}e>c{d}A {g}B>cd   | {g}c<ae      {g}f>ed        | {g}c<d{e}B    {G}A2       :|$
[V:M]|:   x  e     | {g}A>{d}ce {gef}e>c{e}A     | {g}A>df      {gfg}f>ed | {g}c2{GdG}e  {geg}e>dc      | {g}B>cd       {gcd}c>B{G}A |$
[V:M]	    xxx | {g}A>{d}ce {gef}e>c{e}A     | {g}A>df      {gfg}f>ed | {g}c<ae      {g}f>ed        | {g}c<d{e}B    {G}A2       :|$
%%MIDI channel 10
%%MIDI program 0 
%%MIDI drummap c 38
%%MIDI drummap A 38
%%MIDI vol 50
%%MIDI drumon
% %MIDI drumoff
V:S
% %MIDI program 116 #taiko drum
% %MIDI program 0 
%%MIDI channel 10
%%MIDI vol 80
%%MIDI drummap A 35
%%MIDI drumon
L:1/8
V:B
%%MIDI drumoff
%%MIDI drummap e 43
%%MIDI channel 10
%%MIDI program 117 #Melodic Tom
%%MIDI vol 70
%%MIDI drumon
V:T
%%MIDI drumoff


